icons/php/php-original.svg

<svg width="128" height="128" viewBox="0 0 128 128" xmlns="http://www.w3.org/2000/svg">
<path d="M1.79977 63.7196C1.79977 81.79 29.6483 96.4393 63.9999 96.4393C98.3515 96.4393 126.2 81.79 126.2 63.7196C126.2 45.6495 98.3515 31 63.9999 31C29.6483 31 1.79977 45.6495 1.79977 63.7196Z" fill="url(#paint0_radial_1_621)"/>
<path d="M63.9999 94.0099C97.0097 94.0099 123.77 80.4484 123.77 63.7196C123.77 46.9909 97.0097 33.4292 63.9999 33.4292C30.99 33.4292 4.22946 46.9909 4.22946 63.7196C4.22946 80.4484 30.99 94.0099 63.9999 94.0099Z" fill="#777BB3"/>
<path d="M35.5937 67.4752C38.308 67.4752 40.3343 66.9746 41.6164 65.9879C42.8848 65.0113 43.7608 63.3193 44.22 60.9591C44.6481 58.753 44.485 57.2126 43.7354 56.3814C42.9689 55.5323 41.3118 55.1017 38.8101 55.1017H34.4724L32.0677 67.4752H35.5937ZM21.4063 82.717C21.205 82.717 21.0138 82.627 20.8857 82.4713C20.7575 82.3159 20.7055 82.1111 20.744 81.9134L27.117 49.1236C27.1786 48.8066 27.4565 48.5776 27.7795 48.5776H41.515C45.8317 48.5776 49.0447 49.7497 51.0643 52.0617C53.0947 54.3859 53.7217 57.6347 52.9278 61.7177C52.6047 63.3811 52.049 64.926 51.2762 66.3091C50.5026 67.6938 49.4801 68.975 48.2367 70.1179C46.7482 71.5109 45.0637 72.521 43.2342 73.1154C41.4337 73.7019 39.1215 73.9993 36.3618 73.9993H30.8L29.2117 82.1707C29.1501 82.488 28.8725 82.717 28.5494 82.717H21.4063Z" fill="black"/>
<path d="M35.0289 55.7765H38.8102C41.8295 55.7765 42.8783 56.4391 43.2347 56.8339C43.8259 57.4895 43.9375 58.8717 43.5575 60.831C43.1305 63.0244 42.3391 64.5797 41.2048 65.453C40.0435 66.347 38.1555 66.8001 35.5938 66.8001H32.8865L35.0289 55.7765ZM41.515 47.9025H27.7794C27.1333 47.9025 26.5778 48.3606 26.4545 48.9948L20.0815 81.7846C20.0046 82.1803 20.1085 82.5895 20.3648 82.9007C20.6212 83.2118 21.0032 83.3918 21.4064 83.3918H28.5492C29.1956 83.3918 29.751 82.9337 29.8743 82.2995L31.3564 74.6741H36.3618C39.1924 74.6741 41.5753 74.3655 43.4437 73.7569C45.3652 73.1326 47.133 72.0741 48.6977 70.6109C49.9917 69.4204 51.0576 68.084 51.8653 66.6386C52.6731 65.1927 53.2536 63.5803 53.5904 61.8463C54.4261 57.5484 53.7472 54.1068 51.5726 51.6177C49.4192 49.1525 46.0351 47.9025 41.515 47.9025ZM31.2489 68.15H35.5938C38.4736 68.15 40.6187 67.6076 42.0282 66.5225C43.4378 65.4373 44.3886 63.626 44.8826 61.0879C45.3553 58.651 45.14 56.9313 44.2367 55.9295C43.3323 54.9277 41.5238 54.4267 38.8102 54.4267H33.9162L31.2489 68.15M41.515 49.2524C45.6471 49.2524 48.6615 50.3367 50.5562 52.5057C52.4507 54.6746 53.0212 57.7021 52.2653 61.5889C51.9541 63.19 51.4279 64.6539 50.6871 65.9801C49.9454 67.3072 48.9769 68.5207 47.78 69.6211C46.3537 70.9558 44.7692 71.907 43.0257 72.4735C41.2822 73.0415 39.0615 73.3243 36.3618 73.3243H30.2435L28.5492 82.042H21.4064L27.7794 49.2524H41.515" fill="white"/>
<path d="M69.3054 73.9993C69.1038 73.9993 68.9128 73.9093 68.7848 73.7537C68.6563 73.5982 68.6044 73.3937 68.6428 73.1957L71.462 58.6875C71.7301 57.3078 71.664 56.3175 71.2759 55.899C71.0383 55.6432 70.3247 55.2142 68.2147 55.2142H63.1074L59.563 73.4531C59.5013 73.7703 59.2235 73.9993 58.9004 73.9993H51.8138C51.6123 73.9993 51.4213 73.9093 51.293 73.7537C51.1648 73.5982 51.1128 73.3935 51.1513 73.1957L57.5243 40.4059C57.5859 40.0889 57.8638 39.8599 58.1868 39.8599H65.2734C65.475 39.8599 65.666 39.9499 65.7942 40.1053C65.9225 40.261 65.9744 40.4655 65.936 40.6635L64.3981 48.5776H69.8923C74.0779 48.5776 76.9162 49.3155 78.5693 50.8336C80.2543 52.3823 80.78 54.8585 80.1321 58.1944L77.167 73.4531C77.1054 73.7703 76.8277 73.9993 76.5045 73.9993H69.3054Z" fill="black"/>
<path d="M65.2735 39.1849H58.1869C57.5405 39.1849 56.9851 39.6429 56.8618 40.2771L50.4888 73.0669C50.4118 73.4627 50.5158 73.8719 50.7722 74.183C51.0287 74.4942 51.4107 74.6741 51.8139 74.6741H58.9005C59.5466 74.6741 60.1023 74.2161 60.2256 73.5819L63.6638 55.889H68.2147C70.3211 55.889 70.7632 56.339 70.781 56.3583C70.9088 56.4958 71.0768 57.1324 70.7994 58.5587L67.9803 73.0669C67.9034 73.4627 68.0073 73.8719 68.2638 74.183C68.5202 74.4942 68.9022 74.6741 69.3054 74.6741H76.5045C77.1506 74.6741 77.7063 74.2161 77.8296 73.5819L80.7945 58.3232C81.4903 54.7414 80.895 52.0546 79.026 50.3367C77.2424 48.6987 74.2548 47.9025 69.8923 47.9025H65.2165L66.5985 40.7923C66.6753 40.3966 66.5715 39.9871 66.3151 39.6762C66.0586 39.3651 65.6766 39.1849 65.2735 39.1849ZM65.2735 40.5347L63.5792 49.2524H69.8923C73.8647 49.2524 76.6046 49.9457 78.1126 51.3306C79.6206 52.7165 80.0723 54.9619 79.4696 58.0658L76.5045 73.3243H69.3054L72.1245 58.8163C72.4453 57.166 72.3274 56.0402 71.7704 55.44C71.2132 54.8397 70.0278 54.5392 68.2147 54.5392H62.5509L58.9005 73.3243H51.8139L58.1869 40.5347H65.2735Z" fill="white"/>
<path d="M91.3451 67.4752C94.0594 67.4752 96.0857 66.9746 97.3678 65.9879C98.6362 65.0115 99.5123 63.3195 99.9716 60.9591C100.4 58.753 100.237 57.2126 99.4868 56.3814C98.7204 55.5323 97.0632 55.1017 94.5615 55.1017H90.2239L87.8191 67.4752H91.3451ZM77.158 82.717C76.9566 82.717 76.7654 82.627 76.6374 82.4713C76.5091 82.3159 76.4569 82.1111 76.4954 81.9134L82.8684 49.1236C82.9303 48.8066 83.2079 48.5776 83.5312 48.5776H97.2664C101.583 48.5776 104.796 49.7497 106.816 52.0617C108.846 54.3856 109.473 57.6345 108.679 61.7177C108.356 63.3811 107.8 64.926 107.028 66.3091C106.254 67.6938 105.231 68.975 103.988 70.1179C102.5 71.5109 100.815 72.521 98.9856 73.1154C97.1851 73.7019 94.8729 73.9993 92.1132 73.9993H86.5512L84.9636 82.1707C84.9017 82.488 84.6241 82.717 84.3008 82.717H77.158Z" fill="black"/>
<path d="M90.7803 55.7765H94.5616C97.5809 55.7765 98.6298 56.4391 98.9861 56.8339C99.5776 57.4895 99.6892 58.8717 99.309 60.8307C98.882 63.0244 98.0903 64.5797 96.9562 65.453C95.7949 66.347 93.9069 66.8001 91.3452 66.8001H88.6381L90.7803 55.7765ZM97.2664 47.9025H83.531C82.8849 47.9025 82.3295 48.3606 82.2062 48.9948L75.8332 81.7846C75.7562 82.1803 75.8602 82.5895 76.1164 82.9007C76.3729 83.2118 76.7549 83.3918 77.158 83.3918H84.3009C84.947 83.3918 85.5027 82.9337 85.626 82.2995L87.1078 74.6741H92.1132C94.9438 74.6741 97.3267 74.3655 99.1951 73.7569C101.117 73.1326 102.885 72.0739 104.45 70.6105C105.744 69.4202 106.809 68.084 107.617 66.6386C108.425 65.1927 109.005 63.5803 109.342 61.8463C110.178 57.5482 109.499 54.1066 107.324 51.6175C105.171 49.1525 101.787 47.9025 97.2664 47.9025ZM87.0005 68.15H91.3452C94.225 68.15 96.3701 67.6076 97.7796 66.5225C99.1895 65.4373 100.14 63.626 100.634 61.0879C101.107 58.651 100.892 56.9313 99.9881 55.9295C99.0838 54.9277 97.2752 54.4267 94.5616 54.4267H89.6676L87.0005 68.15ZM97.2664 49.2524C101.398 49.2524 104.413 50.3367 106.308 52.5057C108.202 54.6746 108.773 57.7021 108.017 61.5889C107.706 63.19 107.179 64.6539 106.439 65.9801C105.697 67.3072 104.728 68.5207 103.531 69.6211C102.105 70.9558 100.521 71.907 98.7771 72.4735C97.0336 73.0415 94.8129 73.3243 92.1132 73.3243H85.9949L84.3009 82.042H77.158L83.531 49.2524H97.2664" fill="white"/>
<defs>
<radialGradient id="paint0_radial_1_621" cx="0" cy="0" r="1" gradientUnits="userSpaceOnUse" gradientTransform="translate(39.145 42.5032) scale(81.6777 81.6777)">
<stop stop-color="#AEB2D5"/>
<stop offset="0.3" stop-color="#AEB2D5"/>
<stop offset="0.75" stop-color="#484C89"/>
<stop offset="1" stop-color="#484C89"/>
</radialGradient>
</defs>
</svg>

<svg xmlns="http://www.w3.org/2000/svg" viewBox="0 0 128 128"><path fill="url(#a)" d="M1.8 63.72c0 18.07 27.848 32.72 62.2 32.72 34.352 0 62.2-14.65 62.2-32.72S98.351 31 64 31C29.648 31 1.8 45.65 1.8 63.72Z"/><path fill="#777BB3" d="M64 94.01c33.01 0 59.77-13.562 59.77-30.29 0-16.73-26.76-30.29-59.77-30.29-33.01 0-59.77 13.56-59.77 30.29 0 16.728 26.76 30.29 59.77 30.29Z"/><path d="M35.594 67.475c2.714 0 4.74-.5 6.022-1.487 1.269-.977 2.145-2.669 2.604-5.029.428-2.206.265-3.746-.485-4.578-.766-.849-2.423-1.28-4.925-1.28h-4.338l-2.404 12.374h3.526ZM21.406 82.717a.674.674 0 0 1-.662-.804l6.373-32.79a.675.675 0 0 1 .662-.545h13.736c4.317 0 7.53 1.172 9.55 3.484 2.03 2.324 2.657 5.573 1.863 9.656-.323 1.663-.879 3.208-1.652 4.591a15.373 15.373 0 0 1-3.04 3.809c-1.488 1.393-3.172 2.403-5.002 2.997-1.8.587-4.113.884-6.872.884H30.8l-1.588 8.172a.675.675 0 0 1-.663.546h-7.143Z"/><path fill="#fff" d="M35.029 55.776h3.781c3.02 0 4.068.663 4.425 1.058.59.655.703 2.038.322 3.997-.427 2.193-1.218 3.749-2.352 4.622-1.161.894-3.05 1.347-5.611 1.347h-2.708l2.143-11.023Zm6.486-7.873H27.779a1.35 1.35 0 0 0-1.325 1.092l-6.373 32.79a1.35 1.35 0 0 0 1.325 1.607h7.143a1.35 1.35 0 0 0 1.325-1.093l1.482-7.625h5.006c2.83 0 5.213-.309 7.082-.917 1.921-.624 3.689-1.683 5.254-3.146a16.057 16.057 0 0 0 3.167-3.972c.808-1.446 1.389-3.059 1.725-4.793.836-4.298.157-7.74-2.017-10.228-2.154-2.465-5.538-3.715-10.058-3.715ZM31.249 68.15h4.345c2.88 0 5.025-.542 6.434-1.628 1.41-1.085 2.36-2.896 2.855-5.434.472-2.437.257-4.157-.646-5.159-.905-1.001-2.713-1.502-5.427-1.502h-4.894L31.25 68.15m10.266-18.898c4.132 0 7.146 1.085 9.041 3.254 1.895 2.169 2.465 5.196 1.71 9.083-.312 1.601-.838 3.065-1.579 4.391-.742 1.327-1.71 2.54-2.907 3.641-1.426 1.335-3.01 2.286-4.754 2.853-1.744.567-3.965.85-6.664.85h-6.119l-1.694 8.718h-7.143l6.373-32.79h13.736"/><path d="M69.305 74a.674.674 0 0 1-.662-.804l2.819-14.508c.268-1.38.202-2.37-.186-2.789-.238-.256-.951-.685-3.061-.685h-5.108l-3.544 18.24a.675.675 0 0 1-.663.545h-7.086a.675.675 0 0 1-.663-.803l6.373-32.79a.675.675 0 0 1 .663-.546h7.086a.675.675 0 0 1 .663.803l-1.538 7.915h5.494c4.186 0 7.024.737 8.677 2.256 1.685 1.548 2.211 4.024 1.563 7.36l-2.965 15.26a.675.675 0 0 1-.663.545h-7.199Z"/><path fill="#fff" d="M65.273 39.185h-7.086a1.35 1.35 0 0 0-1.325 1.092l-6.373 32.79a1.35 1.35 0 0 0 1.325 1.607H58.9a1.35 1.35 0 0 0 1.325-1.092l3.438-17.693h4.55c2.107 0 2.55.45 2.567.47.128.137.296.773.018 2.2L67.98 73.067a1.35 1.35 0 0 0 1.325 1.607h7.2a1.35 1.35 0 0 0 1.325-1.092l2.965-15.259c.695-3.582.1-6.268-1.769-7.986-1.784-1.638-4.771-2.434-9.134-2.434h-4.675l1.382-7.11a1.35 1.35 0 0 0-1.326-1.608Zm0 1.35-1.694 8.717h6.313c3.973 0 6.713.694 8.22 2.079 1.509 1.386 1.96 3.63 1.358 6.735l-2.966 15.258h-7.199l2.82-14.508c.32-1.65.202-2.776-.355-3.376-.557-.6-1.742-.9-3.555-.9H62.55L58.9 73.323h-7.087l6.373-32.79h7.087Z"/><path d="M91.345 67.475c2.714 0 4.74-.5 6.023-1.487 1.268-.977 2.144-2.669 2.604-5.029.428-2.206.265-3.746-.485-4.578-.767-.849-2.424-1.28-4.925-1.28h-4.338l-2.405 12.374h3.526ZM77.158 82.717a.674.674 0 0 1-.663-.804l6.373-32.79a.675.675 0 0 1 .663-.545h13.735c4.317 0 7.53 1.172 9.55 3.484 2.03 2.324 2.657 5.573 1.863 9.656a15.431 15.431 0 0 1-1.651 4.591 15.393 15.393 0 0 1-3.04 3.809c-1.488 1.393-3.173 2.403-5.002 2.997-1.8.587-4.113.884-6.873.884h-5.562l-1.587 8.172a.675.675 0 0 1-.663.546h-7.143Z"/><path fill="#fff" d="M90.78 55.776h3.782c3.019 0 4.068.663 4.424 1.058.592.655.703 2.038.323 3.997-.427 2.193-1.219 3.749-2.353 4.622-1.161.894-3.05 1.347-5.61 1.347h-2.708l2.142-11.023Zm6.486-7.873H83.531a1.35 1.35 0 0 0-1.325 1.092l-6.373 32.79a1.35 1.35 0 0 0 1.325 1.607h7.143a1.35 1.35 0 0 0 1.325-1.093l1.482-7.625h5.005c2.83 0 5.214-.309 7.082-.917 1.922-.624 3.69-1.683 5.255-3.147a16.056 16.056 0 0 0 3.167-3.971c.808-1.446 1.388-3.059 1.725-4.793.836-4.298.157-7.74-2.018-10.228-2.153-2.465-5.537-3.715-10.058-3.715ZM87 68.15h4.345c2.88 0 5.025-.542 6.435-1.628 1.41-1.085 2.36-2.896 2.854-5.434.473-2.437.258-4.157-.646-5.159-.904-1.001-2.713-1.502-5.426-1.502h-4.894L87 68.15Zm10.266-18.898c4.132 0 7.147 1.085 9.042 3.254 1.894 2.169 2.465 5.196 1.709 9.083-.311 1.601-.838 3.065-1.578 4.391-.742 1.327-1.711 2.54-2.908 3.641-1.426 1.335-3.01 2.286-4.754 2.853-1.743.567-3.964.85-6.664.85h-6.118L84.3 82.042h-7.143l6.373-32.79h13.735"/><defs><radialGradient id="a" cx="0" cy="0" r="1" gradientTransform="translate(39.145 42.503) scale(81.6777)" gradientUnits="userSpaceOnUse"><stop stop-color="#AEB2D5"/><stop offset="0.3" stop-color="#AEB2D5"/><stop offset="0.75" stop-color="#484C89"/><stop offset="1" stop-color="#484C89"/></radialGradient></defs></svg>
